wp-content/themes/sayenko-erickson/public/images/careers/search.svg

<?xml version="1.0" encoding="UTF-8"?>
<svg width="44px" height="52px" viewBox="0 0 44 52" version="1.1" xmlns="http://www.w3.org/2000/svg" xmlns:xlink="http://www.w3.org/1999/xlink">
    <!-- Generator: Sketch 63.1 (92452) - https://sketch.com -->
    <title>search</title>
    <desc>Created with Sketch.</desc>
    <g id="Mockups" stroke="none" stroke-width="1" fill="none" fill-rule="evenodd">
        <g id="Career-Index" transform="translate(-698.000000, -2536.000000)" fill="#E9731F" fill-rule="nonzero">
            <g id="search" transform="translate(698.000000, 2536.000000)">
                <path d="M42.3291,0 L7.2731,0 C6.7099,0 6.2532,0.4566 6.2532,1.0199 L6.2532,35.923 L1.0204,41.1558 C-0.2719,42.4481 -0.2719,44.5511 1.0204,45.8435 C1.6666,46.4897 2.5155,46.8128 3.3643,46.8128 C4.2131,46.8128 5.0621,46.4897 5.7082,45.8435 L6.2531,45.2986 L6.2531,50.1801 C6.2531,50.7434 6.7098,51.2 7.273,51.2 L33.9292,51.2 C34.1997,51.2 34.459,51.0925 34.6504,50.9013 L43.0501,42.5015 C43.2413,42.3103 43.3488001,42.0509 43.3488001,41.7803 L43.3488001,1.0199 C43.3488001,0.4566 42.8923,0 42.3291,0 Z M4.2659,44.401 C3.7687,44.8982 2.9599,44.8981 2.4629,44.401 C1.9659,43.9039 1.9659,43.0951 2.4629,42.5981 L12.2351,32.8259 L14.0381,34.6289 L4.2659,44.401 Z M34.9475,47.7196 L34.9429,42.7939 L39.8688,42.7984 L34.9475,47.7196 Z M41.3092,40.7598 L33.9229,40.7531 C33.9226,40.7531 33.9223,40.7531 33.922,40.7531 C33.6515,40.7531 33.3921,40.8606 33.2008,41.0518 C33.0094,41.2432 32.9018,41.5031 32.9021,41.7739 L32.9089,49.1602 L8.2931,49.1602 L8.2931,43.2587 L16.2017,35.3501 C16.6,34.9518 16.6,34.306 16.2017,33.9077 L15.2689,32.9749 L17.2193,31.0245 C19.3168,32.7758 22.0144,33.8313 24.9542,33.8313 C31.6185,33.8313 37.0403,28.4095 37.0403,21.7452 C37.0403,15.0809 31.6183,9.6593 24.9541,9.6593 C18.2899,9.6593 12.868,15.081 12.868,21.7453 C12.868,24.737 13.9612,27.4779 15.7683,29.5906 L13.8264,31.5325 L12.9563,30.6624 C12.765,30.4712 12.5056,30.3637 12.2351,30.3637 C11.9646,30.3637 11.7052,30.4712 11.5139,30.6624 L8.2931,33.8832 L8.2931,2.0398 L41.3092,2.0398 L41.3092,40.7598 Z M14.9079,21.7453 C14.9079,16.2058 19.4146,11.6991 24.9541,11.6991 C30.4936,11.6991 35.0003,16.2058 35.0003,21.7453 C35.0003,27.2848 30.4936,31.7915 24.9541,31.7915 C19.4146,31.7915 14.9079,27.2848 14.9079,21.7453 Z" id="Shape"></path>
                <path d="M30.7166,20.7764 L19.2935,20.7764 C18.7303,20.7764 18.2736,21.233 18.2736,21.7963 C18.2736,22.3596 18.7303,22.8162 19.2935,22.8162 L30.7166,22.8162 C31.2798,22.8162 31.7365,22.3596 31.7365,21.7963 C31.7365,21.233 31.2798,20.7764 30.7166,20.7764 Z" id="Path"></path>
                <path d="M30.7166,24.7541 L19.2935,24.7541 C18.7303,24.7541 18.2736,25.2107 18.2736,25.774 C18.2736,26.3373 18.7303,26.7939 19.2935,26.7939 L30.7166,26.7939 C31.2799,26.7939 31.7365,26.3373 31.7365,25.774 C31.7365,25.2107 31.2798,24.7541 30.7166,24.7541 Z" id="Path"></path>
                <path d="M23.8832,16.6967 L19.2936,16.6967 C18.7304,16.6967 18.2737,17.1533 18.2737,17.7166 C18.2737,18.2799 18.7304,18.7365 19.2936,18.7365 L23.8832,18.7365 C24.4464,18.7365 24.9031,18.2799 24.9031,17.7166 C24.9031,17.1533 24.4464,16.6967 23.8832,16.6967 Z" id="Path"></path>
                <path d="M27.5549,16.6967 L26.9429,16.6967 C26.3797,16.6967 25.923,17.1533 25.923,17.7166 C25.923,18.2799 26.3797,18.7365 26.9429,18.7365 L27.5549,18.7365 C28.1181,18.7365 28.5748,18.2799 28.5748,17.7166 C28.5748,17.1533 28.1181,16.6967 27.5549,16.6967 Z" id="Path"></path>
            </g>
        </g>
    </g>
</svg>

<svg width="44" height="52" viewBox="0 0 44 52" version="1.1" xmlns="http://www.w3.org/2000/svg"><g id="Mockups" stroke="none" stroke-width="1" fill="none" fill-rule="evenodd"><g id="Career-Index" transform="translate(-698 -2536)" fill="#E9731F" fill-rule="nonzero"><g id="search" transform="translate(698 2536)"><path d="M42.33 0H7.272a1.02 1.02 0 0 0-1.02 1.02v34.903L1.02 41.156a3.319 3.319 0 0 0 0 4.688 3.306 3.306 0 0 0 2.344.969 3.3 3.3 0 0 0 2.344-.97l.545-.544v4.881c0 .563.457 1.02 1.02 1.02h26.656c.27 0 .53-.108.721-.299l8.4-8.4a1.02 1.02 0 0 0 .299-.72V1.02A1.02 1.02 0 0 0 42.329 0zM4.265 44.401a1.276 1.276 0 0 1-1.803 0 1.276 1.276 0 0 1 0-1.803l9.772-9.772 1.803 1.803L4.266 44.4zm30.681 3.319l-.004-4.926 4.926.004-4.922 4.922zm6.362-6.96l-7.386-.007h-.001a1.02 1.02 0 0 0-1.02 1.02l.007 7.387H8.293v-5.9l7.909-7.909a1.02 1.02 0 0 0 0-1.442l-.933-.933 1.95-1.95a12.031 12.031 0 0 0 7.735 2.806c6.665 0 12.086-5.422 12.086-12.086 0-6.664-5.422-12.086-12.086-12.086-6.664 0-12.086 5.422-12.086 12.086 0 2.992 1.093 5.733 2.9 7.846l-1.942 1.941-.87-.87a1.02 1.02 0 0 0-1.442 0l-3.22 3.221V2.04h33.015v38.72zm-26.4-19.015c0-5.54 4.507-10.046 10.046-10.046C30.494 11.7 35 16.206 35 21.745c0 5.54-4.506 10.046-10.046 10.046-5.54 0-10.046-4.506-10.046-10.046z" id="Shape"/><path d="M30.717 20.776H19.294a1.02 1.02 0 0 0 0 2.04h11.423a1.02 1.02 0 0 0 0-2.04zm0 3.978H19.294a1.02 1.02 0 0 0 0 2.04h11.423a1.02 1.02 0 1 0 0-2.04zm-6.834-8.057h-4.59a1.02 1.02 0 0 0 0 2.04h4.59a1.02 1.02 0 0 0 0-2.04zm3.672 0h-.612a1.02 1.02 0 0 0 0 2.04h.612a1.02 1.02 0 0 0 0-2.04z" id="Path"/></g></g></g></svg>
